X:1
T:Title
%%score { 1 | ( 2 3 ) }
L:1/8
M:4/4
K:D
V:1 treble nm="Grand Piano"
V:2 bass 
V:3 bass 
V:1
 z4 z2[Q:1/4=118] A2 | A3 A G2 F2 | [B,E]2 [B,^DF]2 [B,EG]2 [B,E]2 | [A,D]3 [A,D] [CE]2 [CE]2 | %4
[M:3/4] F6 |[M:1/4] F2 |[M:4/4] G3 A B2 A2 | B2 [Gc]2 [Fd]2 [DF]2 | %8
 [DA]3 [DA] .[CA]2[K:bass] [G,CE]2 |[M:3/4] [F,D]6 |[M:1/4] [F,D]2 | %11
[M:4/4][K:treble] [A,DF]3 [A,DF] [A,DF]2 [DFA]2 | [DGB]2 [B,DG]2 F2 F2 | E3 A B2 c2 | [CA]6 z2 | %15
 [Ec]2 cc .e2 z c |[M:9/8] B2 c- c [Fd]2- [Fd] [DF]2[Q:1/4=116][Q:1/4=115] | %17
[M:4/4] [DA]3 [DA] [CF]2 [CE]2[Q:1/4=113][Q:1/4=111][Q:1/4=109][Q:1/4=108][Q:1/4=106][Q:1/4=104][Q:1/4=102][Q:1/4=101][Q:1/4=99][Q:1/4=97][Q:1/4=95][Q:1/4=94] | %18
[M:3/4] D6[Q:1/4=92][Q:1/4=90] |] %19
V:2
 z4 z2 [D,F,D]2 | [D,F,D]3 [D,F,D] [D,B,D]2 [D,A,D]2 | [G,,G,]2 [F,,F,]2 [E,,E,]2 [G,,G,]2 | %3
 [A,,F,]3 [A,,F,] [A,,A,]2 [A,,A,]2 |[M:3/4] [D,A,D]6 |[M:1/4] [D,A,D]2 | %6
[M:4/4] [E,A,C]3 [F,A,D] [G,D]2 [F,A,D]2 | [G,D]2 [E,A,]2 [D,A,]2 [D,A,]2 | %8
 [A,,F,]3 [A,,F,] z G A,,2 |[M:3/4] D,6 |[M:1/4] D,2 |[M:4/4] D,3 D, D,2 D,2 | %12
 G,,2 G,,2 [D,A,D]2 [D,A,D]2 | [E,A,C]3 [E,A,C] [E,^G,D]2 [E,G,E]2 | [A,,A,]6 z2 | %15
 [A,,A,]2[K:treble] [A,E][A,E] .[A,CG]2 z [A,EG] | %16
[M:9/8] [A,DG]2 [A,G]- [A,G][K:bass] [D,A,]2- [D,A,] [D,A,]2 | %17
[M:4/4] [A,,F,]3 [A,,F,] [A,,A,]2 [A,,G,]2 |[M:3/4] [D,F,]6 |] %19
V:3
 x8 | x8 | x8 | x8 |[M:3/4] x6 |[M:1/4] x2 |[M:4/4] x8 | x8 | z4 [A,,E,]2 z2 |[M:3/4] x6 | %10
[M:1/4] x2 |[M:4/4] x8 | x8 | x8 | x8 | x2[K:treble] x6 |[M:9/8] x4[K:bass] x5 |[M:4/4] x8 | %18
[M:3/4] x6 |] %19

